X: 18710
T: Iain And Keeley's
R: waltz
M: 3/4
K: Dmajor
Ade|f4a2|f4fe|d3edc|A4A2|B3ABd|g4f2|e6|e3Ade|
f4a2|f4fe|d3edc|A4A2|B3ABd|e3fdc|d6|d3Ade|
f4a2|f4fe|d3edc|A4A2|B3ABd|g4f2|e6|e3Ade|
f4a2|f4fe|d3edc|A4A2|B3ABd|e3fdc|d6|d4fg||
a2defg|a2defg|a2agfa|d3def|g2efga|g2efga|gfedce|A3Afg|
a2defg|a2defg|a2agfa|d4dc|B3ABd|e3fdc|d6|d4fg|
a2defg|a2defg|a2agfa|d3def|g2efga|g2efga|gfedce|A3Ade|
f4a2|f4fe|d2dedc|A4A2|B3ABd|e3fdc|d6|d6||

